packages/bezier-icons/icons/document.svg

<svg width="24" height="24" viewBox="0 0 24 24" fill="none" xmlns="http://www.w3.org/2000/svg">
<path fill-rule="evenodd" clip-rule="evenodd" d="M20.5002 3.00012H16.0712C14.5597 3.00012 13.1065 3.57071 11.9998 4.59215C10.894 3.57075 9.44075 3.00012 7.92921 3.00012H3.50021C2.67193 3.00012 2.00021 3.67184 2.00021 4.50012V18.5001C2.00021 19.3284 2.67193 20.0001 3.50021 20.0001H7.92921C8.98982 20.0001 10.0075 20.4216 10.7571 21.1712L11.2931 21.7072C11.6839 22.098 12.3176 22.0977 12.708 21.7066L13.243 21.1706C13.9927 20.4216 15.0106 20.0001 16.0712 20.0001H20.5002C21.3285 20.0001 22.0002 19.3284 22.0002 18.5001V4.50012C22.0002 3.67184 21.3285 3.00012 20.5002 3.00012ZM16.0712 5.00012H20.0002V18.0001H16.0712C14.9812 18.0001 13.9215 18.2969 13.0002 18.8454V6.41379L13.243 6.17057C13.9927 5.42164 15.0106 5.00012 16.0712 5.00012ZM11.0002 6.41434V18.8456C10.0792 18.2969 9.01936 18.0001 7.92921 18.0001H4.00021V5.00012H7.92921C8.98982 5.00012 10.0075 5.42164 10.7571 6.17123L11.0002 6.41434ZM5 8C5 7.44772 5.44772 7 6 7H9C9.55228 7 10 7.44772 10 8C10 8.55228 9.55228 9 9 9H6C5.44772 9 5 8.55228 5 8ZM15 7C14.4477 7 14 7.44772 14 8C14 8.55228 14.4477 9 15 9H18C18.5523 9 19 8.55228 19 8C19 7.44772 18.5523 7 18 7H15ZM15 10C14.4477 10 14 10.4477 14 11C14 11.5523 14.4477 12 15 12H18C18.5523 12 19 11.5523 19 11C19 10.4477 18.5523 10 18 10H15ZM6 10C5.44772 10 5 10.4477 5 11C5 11.5523 5.44772 12 6 12H9C9.55228 12 10 11.5523 10 11C10 10.4477 9.55228 10 9 10H6Z" fill="#313234"/>
</svg>

<svg xmlns="http://www.w3.org/2000/svg" width="24" height="24" fill="none" viewBox="0 0 24 24"><path fill="#313234" fill-rule="evenodd" d="M20.5 3h-4.429C14.56 3 13.106 3.57 12 4.592A6 6 0 0 0 7.93 3H3.5A1.5 1.5 0 0 0 2 4.5v14A1.5 1.5 0 0 0 3.5 20h4.43a4 4 0 0 1 2.827 1.171l.536.536a1 1 0 0 0 1.415 0l.535-.536A4 4 0 0 1 16.071 20h4.43a1.5 1.5 0 0 0 1.5-1.5v-14A1.5 1.5 0 0 0 20.5 3m-4.429 2h3.93v13h-3.93c-1.09 0-2.15.297-3.07.845V6.414l.242-.243A4 4 0 0 1 16.071 5m-5.07 1.414v12.432A6 6 0 0 0 7.928 18H4V5h3.93a4 4 0 0 1 2.827 1.171zM5 8a1 1 0 0 1 1-1h3a1 1 0 0 1 0 2H6a1 1 0 0 1-1-1m10-1a1 1 0 1 0 0 2h3a1 1 0 1 0 0-2zm0 3a1 1 0 1 0 0 2h3a1 1 0 1 0 0-2zm-9 0a1 1 0 1 0 0 2h3a1 1 0 1 0 0-2z" clip-rule="evenodd"/></svg>
